public/static/img/assets/trans_icon.svg

<svg width="30" height="30" viewBox="0 0 30 30" fill="none" xmlns="http://www.w3.org/2000/svg">
<path d="M27.9363 9.53484L27.9362 9.53481C27.23 7.86254 26.2182 6.36108 24.9272 5.07324C23.6363 3.78546 22.1383 2.77355 20.4663 2.06392L20.4662 2.06389C18.7317 1.33125 16.8954 0.96 15 0.96C13.1046 0.96 11.2683 1.33125 9.5338 2.06389C7.86173 2.77025 6.36045 3.78218 5.07275 5.07331C3.78513 6.36437 2.77334 7.8625 2.06379 9.53474L2.06374 9.53484C1.3345 11.2662 0.96 13.1027 0.96 14.9984C0.96 16.8939 1.33121 18.7305 2.06376 20.4652C2.77004 22.1375 3.78185 23.6389 5.07283 24.9268C6.36374 26.2145 7.86169 27.2264 9.53374 27.9361L9.5338 27.9361C11.2683 28.6688 13.1046 29.04 15 29.04C16.8954 29.04 18.7317 28.6688 20.4662 27.9361C22.1383 27.2298 23.6396 26.2178 24.9272 24.9267C26.2149 23.6356 27.2267 22.1375 27.9362 20.4653L27.9362 20.4652C28.6688 18.7338 29.04 16.8939 29.04 14.9984V14.9983C29.0367 13.1028 28.6655 11.2662 27.9363 9.53484ZM23.4818 23.4811C21.216 25.7472 18.2028 26.9944 15 26.9944C11.7972 26.9944 8.784 25.7472 6.51822 23.4811C4.2557 21.2151 3.00537 18.2015 3.00537 14.9984C3.00537 11.7952 4.25245 8.78163 6.51822 6.51559C8.784 4.24954 11.794 3.00233 15 3.00233C18.2028 3.00233 21.216 4.24955 23.4818 6.51559C25.7475 8.78162 26.9946 11.7919 26.9946 14.9983C26.9914 18.2015 25.7443 21.2151 23.4818 23.4811Z" fill="#333333" stroke="#333333" stroke-width="0.08"/>
<path d="M18.7435 7.9459L18.7435 7.94594L22.0845 12.1031C22.0845 12.1031 22.0845 12.1031 22.0846 12.1031C22.3335 12.4101 22.3811 12.8328 22.2107 13.1873C22.0402 13.542 21.6789 13.7669 21.287 13.7669H8.71513C8.14928 13.7669 7.69244 13.31 7.69244 12.7441C7.69244 12.1782 8.14928 11.7213 8.71513 11.7213H19.1529L17.1482 9.22788L18.7435 7.9459ZM18.7435 7.9459C18.389 7.50623 17.7448 7.43448 17.3049 7.78917M18.7435 7.9459L17.3049 7.78917M17.3049 7.78917C16.8653 8.14362 16.7936 8.7879 17.1482 9.22784L17.3049 7.78917ZM12.6968 22.2301L12.6972 22.2298C13.1368 21.8754 13.2085 21.231 12.8539 20.7911L10.8492 18.2977H21.287C21.8528 18.2977 22.3096 17.8408 22.3096 17.2748C22.3096 16.7089 21.8528 16.252 21.287 16.252H8.71513C8.32318 16.252 7.96188 16.477 7.79138 16.8316C7.62096 17.1862 7.66862 17.6089 7.91753 17.9159C7.91754 17.9159 7.91755 17.9159 7.91756 17.9159L11.2585 22.0729C11.2585 22.0729 11.2585 22.0729 11.2585 22.0729C11.4598 22.3254 11.7565 22.4549 12.0563 22.4549C12.2814 22.4549 12.5063 22.3798 12.6968 22.2301Z" fill="#333333" stroke="#333333" stroke-width="0.08"/>
</svg>

<svg width="30" height="30" viewBox="0 0 30 30" fill="none" xmlns="http://www.w3.org/2000/svg"><path d="M27.936 9.535a13.926 13.926 0 0 0-3.009-4.462 14.07 14.07 0 0 0-4.46-3.01A13.962 13.962 0 0 0 15 .96c-1.895 0-3.732.371-5.466 1.104a13.926 13.926 0 0 0-4.461 3.01A13.997 13.997 0 0 0 .96 14.998c0 1.895.371 3.731 1.104 5.466a13.928 13.928 0 0 0 3.009 4.462 14.071 14.071 0 0 0 4.46 3.01A13.96 13.96 0 0 0 15 29.04a13.96 13.96 0 0 0 5.466-1.104 13.924 13.924 0 0 0 4.461-3.01 14.07 14.07 0 0 0 3.01-4.46 13.954 13.954 0 0 0 1.103-5.468 14.058 14.058 0 0 0-1.104-5.463zM23.482 23.48A11.917 11.917 0 0 1 15 26.994a11.917 11.917 0 0 1-8.482-3.513 11.933 11.933 0 0 1-3.513-8.483 11.92 11.92 0 0 1 3.513-8.482A11.911 11.911 0 0 1 15 3.002c3.203 0 6.216 1.248 8.482 3.514a11.914 11.914 0 0 1 3.513 8.482 11.947 11.947 0 0 1-3.513 8.483z" fill="#333" stroke="#333" stroke-width=".08"/><path d="m18.744 7.946 3.34 4.157a1.02 1.02 0 0 1-.797 1.664H8.715a1.021 1.021 0 0 1-1.023-1.023c0-.566.457-1.023 1.023-1.023h10.438l-2.005-2.493 1.596-1.282zm0 0a1.024 1.024 0 0 0-1.44-.157m1.44.157-1.44-.157m0 0c-.439.355-.51.999-.156 1.439l.157-1.439zM12.698 22.23c.44-.355.512-.999.157-1.439l-2.005-2.493h10.438c.566 0 1.023-.457 1.023-1.023 0-.566-.457-1.023-1.023-1.023H8.715a1.02 1.02 0 0 0-.798 1.664l3.341 4.157a1.02 1.02 0 0 0 1.438.157z" fill="#333" stroke="#333" stroke-width=".08"/></svg>
